packages/dnb-eufemia/assets/icons/cloud_transfer_medium.svg

<svg width="24" height="24" viewBox="0 0 24 24" fill="none" xmlns="http://www.w3.org/2000/svg">
<path d="M5.06642 7.08701L5.2056 7.82398L5.06642 7.08701ZM18.9377 9.01201L18.1957 8.90256C18.1624 9.12825 18.2337 9.35682 18.3893 9.52363C18.5449 9.69044 18.768 9.77735 18.9954 9.75979L18.9377 9.01201ZM8.12631 8.32039C8.48545 8.52678 8.94389 8.40295 9.15027 8.04381C9.35666 7.68467 9.23283 7.22623 8.87369 7.01985L8.12631 8.32039ZM1.85855 15.9889C2.14592 16.2872 2.62071 16.296 2.91902 16.0086C3.21733 15.7213 3.2262 15.2465 2.93882 14.9482L1.85855 15.9889ZM20.1093 16.1354C19.7097 16.2446 19.4743 16.657 19.5835 17.0566C19.6927 17.4561 20.1051 17.6915 20.5047 17.5823L20.1093 16.1354ZM7.5 23C7.5 23.4142 7.83579 23.75 8.25 23.75C8.66421 23.75 9 23.4142 9 23H7.5ZM10.7197 18.0303C11.0126 18.3232 11.4874 18.3232 11.7803 18.0303C12.0732 17.7374 12.0732 17.2626 11.7803 16.9697L10.7197 18.0303ZM8.25 14.5L8.78033 13.9697C8.48744 13.6768 8.01256 13.6768 7.71967 13.9697L8.25 14.5ZM4.71967 16.9697C4.42678 17.2626 4.42678 17.7374 4.71967 18.0303C5.01256 18.3232 5.48744 18.3232 5.78033 18.0303L4.71967 16.9697ZM16.5 14.5C16.5 14.0858 16.1642 13.75 15.75 13.75C15.3358 13.75 15 14.0858 15 14.5H16.5ZM13.2803 19.4697C12.9874 19.1768 12.5126 19.1768 12.2197 19.4697C11.9268 19.7626 11.9268 20.2374 12.2197 20.5303L13.2803 19.4697ZM15.75 23L15.2197 23.5303C15.5126 23.8232 15.9874 23.8232 16.2803 23.5303L15.75 23ZM19.2803 20.5303C19.5732 20.2374 19.5732 19.7626 19.2803 19.4697C18.9874 19.1768 18.5126 19.1768 18.2197 19.4697L19.2803 20.5303ZM1.75 12C1.75 9.92481 3.23807 8.19557 5.2056 7.82398L4.92723 6.35003C2.26427 6.85297 0.25 9.19045 0.25 12H1.75ZM5.81155 7.17232C6.1951 3.8223 9.18356 1.75 12 1.75V0.25C8.54448 0.25 4.8049 2.7777 4.32128 7.00169L5.81155 7.17232ZM12 1.75C16.1428 1.75 18.6996 5.48681 18.1957 8.90256L19.6797 9.12146C20.3004 4.91319 17.1692 0.25 12 0.25V1.75ZM18.9954 9.75979C20.8494 9.61661 22.5 11.1369 22.5 13H24C24 10.259 21.6014 8.05407 18.8799 8.26424L18.9954 9.75979ZM5.2056 7.82398C6.20057 7.63606 7.24988 7.81674 8.12631 8.32039L8.87369 7.01985C7.68971 6.33946 6.27694 6.09512 4.92723 6.35003L5.2056 7.82398ZM2.93882 14.9482C2.20195 14.1833 1.75 13.1452 1.75 12H0.25C0.25 13.5487 0.863241 14.9557 1.85855 15.9889L2.93882 14.9482ZM22.5 13C22.5 14.4966 21.4878 15.7587 20.1093 16.1354L20.5047 17.5823C22.5187 17.032 24 15.1899 24 13H22.5ZM11.7803 16.9697L8.78033 13.9697L7.71967 15.0303L10.7197 18.0303L11.7803 16.9697ZM7.71967 13.9697L4.71967 16.9697L5.78033 18.0303L8.78033 15.0303L7.71967 13.9697ZM12.2197 20.5303L15.2197 23.5303L16.2803 22.4697L13.2803 19.4697L12.2197 20.5303ZM16.2803 23.5303L19.2803 20.5303L18.2197 19.4697L15.2197 22.4697L16.2803 23.5303ZM15 14.5V23H16.5V14.5H15ZM9 23V14.5H7.5V23H9Z" fill="black"/>
</svg>

<svg width="24" height="24" viewBox="0 0 24 24" fill="none" xmlns="http://www.w3.org/2000/svg"><path d="m5.066 7.087.14.737-.14-.737Zm13.872 1.925-.742-.11a.75.75 0 0 0 .8.858l-.058-.748ZM8.126 8.32a.75.75 0 1 0 .748-1.3l-.748 1.3ZM1.86 15.99a.75.75 0 0 0 1.08-1.04l-1.08 1.04Zm18.25.146a.75.75 0 1 0 .396 1.447l-.396-1.447ZM7.5 23A.75.75 0 0 0 9 23H7.5Zm3.22-4.97a.75.75 0 1 0 1.06-1.06l-1.06 1.06ZM8.25 14.5l.53-.53a.75.75 0 0 0-1.06 0l.53.53Zm-3.53 2.47a.75.75 0 1 0 1.06 1.06l-1.06-1.06ZM16.5 14.5a.75.75 0 0 0-1.5 0h1.5Zm-3.22 4.97a.75.75 0 1 0-1.06 1.06l1.06-1.06ZM15.75 23l-.53.53a.75.75 0 0 0 1.06 0l-.53-.53Zm3.53-2.47a.75.75 0 1 0-1.06-1.06l1.06 1.06ZM1.75 12a4.252 4.252 0 0 1 3.456-4.176L4.927 6.35A5.752 5.752 0 0 0 .25 12h1.5Zm4.062-4.828C6.195 3.822 9.184 1.75 12 1.75V.25c-3.456 0-7.195 2.528-7.679 6.752l1.49.17ZM12 1.75c4.143 0 6.7 3.737 6.196 7.153l1.484.218C20.3 4.913 17.17.25 12 .25v1.5Zm6.995 8.01C20.85 9.617 22.5 11.137 22.5 13H24c0-2.741-2.399-4.946-5.12-4.736l.115 1.496ZM5.205 7.824a4.301 4.301 0 0 1 2.921.496l.748-1.3a5.801 5.801 0 0 0-3.947-.67l.279 1.474ZM2.94 14.948A4.233 4.233 0 0 1 1.75 12H.25a5.73 5.73 0 0 0 1.609 3.989l1.08-1.04ZM22.5 13a3.252 3.252 0 0 1-2.39 3.135l.395 1.447A4.752 4.752 0 0 0 24 13h-1.5Zm-10.72 3.97-3-3-1.06 1.06 3 3 1.06-1.06Zm-4.06-3-3 3 1.06 1.06 3-3-1.06-1.06Zm4.5 6.56 3 3 1.06-1.06-3-3-1.06 1.06Zm4.06 3 3-3-1.06-1.06-3 3 1.06 1.06ZM15 14.5V23h1.5v-8.5H15ZM9 23v-8.5H7.5V23H9Z" fill="#000"/></svg>
